X: 22600
T: Lady On The Boat, The
R: jig
M: 6/8
K: Dmajor
|:A|d>fA d2A|d>fA d2f|a2f d2f|e2e e2A|
d>fA d2A|d>fA d2f|a2f e2e|f>dd d2:|
e||f3 g>fg|a3 f2a|a>gf f>ed|f>ee e>de|
f3 g>fg|a3 f2a|a>gf e2e|f>dd d2 e|
f3 g>fg|a3 f2a|a>gf f>ed|f>ee e2A|
d>fA d2A|d>fA d2f|a2f e2e|f>dd d2||

